src/svg/white/stq.svg

<svg width="32" height="32" viewBox="0 0 32 32" version="1.1" xmlns="http://www.w3.org/2000/svg" xmlns:xlink="http://www.w3.org/1999/xlink"><title>white/stq</title><desc>Created with Sketch.</desc><g id="white/stq" stroke="none" stroke-width="1" fill="none" fill-rule="evenodd"><path d="M16,32 C7.163444,32 0,24.836556 0,16 C0,7.163444 7.163444,0 16,0 C24.836556,0 32,7.163444 32,16 C32,24.836556 24.836556,32 16,32 Z M5.1547619,9.03571429 C5.0952381,9.66666667 5.0952381,10.3095238 5.21428571,10.9404762 C5.83333333,10.9642857 6.46428571,10.9642857 7.0952381,10.9642857 C7.27380952,11.297619 7.46428571,11.6190476 7.61904762,11.9761905 C8.36904762,13.5595238 9.13095238,15.1309524 9.91666667,16.702381 C10.3690476,17.6071429 10.7380952,18.5952381 11.4285714,19.3690476 C11.6428571,19.6547619 12.0238095,19.6904762 12.3809524,19.6904762 L19.047619,19.6904762 C19.6071429,19.6904762 20.2142857,19.6666667 20.6547619,19.297619 C21.1904762,18.8333333 21.4285714,18.1666667 21.7857143,17.5714286 C22.7380952,15.9047619 23.6666667,14.2261905 24.6428571,12.5714286 C24.8452381,12.2142857 25,11.75 24.7857143,11.3571429 C24.6071429,11 24.1666667,10.9880952 23.8095238,10.9642857 C19,10.9642857 14.1666667,10.9880952 9.35714286,10.9642857 C8.98809524,10.3452381 8.88095238,9.5952381 8.4047619,9.05952381 C7.33333333,8.96428571 6.22619048,9.03571429 5.1547619,9.03571429 Z M12.6666667,20.9761905 C12.0833333,21.1071429 11.6071429,21.6190476 11.5357143,22.2142857 C11.4285714,22.9285714 11.4285714,23.7619048 11.9404762,24.3333333 C12.4166667,24.8095238 13.1547619,24.8571429 13.797619,24.8095238 C14.3571429,24.7619048 14.952381,24.5 15.1904762,23.952381 C15.4404762,23.3452381 15.4404762,22.6666667 15.297619,22.0357143 C15.1666667,21.4880952 14.6904762,21.0714286 14.1428571,20.952381 C13.6547619,20.8571429 13.1428571,20.8571429 12.6666667,20.9761905 Z M18.6190476,20.9761905 C18.0357143,21.1071429 17.5833333,21.5952381 17.4642857,22.1785714 C17.3214286,22.8095238 17.3928571,23.4642857 17.6785714,24.047619 C17.9761905,24.5833333 18.5952381,24.797619 19.1666667,24.8214286 C19.75,24.8333333 20.3928571,24.7738095 20.8333333,24.3571429 C21.3095238,23.8571429 21.3809524,23.1071429 21.3095238,22.452381 C21.2619048,21.8928571 20.9761905,21.297619 20.4285714,21.0714286 C19.8571429,20.8571429 19.2142857,20.8452381 18.6190476,20.9761905 Z" id="Combined-Shape" fill="#FFF" fill-rule="nonzero"/></g></svg>

<svg width="32" height="32" viewBox="0 0 32 32" xmlns="http://www.w3.org/2000/svg"><path d="M16 32C7.163 32 0 24.837 0 16S7.163 0 16 0s16 7.163 16 16-7.163 16-16 16zM5.155 9.036c-.06.63-.06 1.274.06 1.904.618.024 1.25.024 1.88.024.179.334.37.655.524 1.012.75 1.584 1.512 3.155 2.298 4.726.452.905.821 1.893 1.512 2.667.214.286.595.321.952.321h6.667c.56 0 1.166-.023 1.607-.392.535-.465.774-1.131 1.13-1.727.953-1.666 1.882-3.345 2.858-5 .202-.357.357-.821.143-1.214-.179-.357-.62-.369-.976-.393-4.81 0-9.643.024-14.453 0-.369-.619-.476-1.369-.952-1.904-1.072-.096-2.179-.024-3.25-.024zm7.512 11.94c-.584.131-1.06.643-1.131 1.238-.107.715-.107 1.548.404 2.12.477.476 1.215.523 1.858.476.56-.048 1.154-.31 1.392-.858.25-.607.25-1.285.108-1.916-.131-.548-.608-.965-1.155-1.084-.488-.095-1-.095-1.476.024zm5.952 0c-.583.131-1.036.62-1.155 1.203a2.817 2.817 0 0 0 .215 1.869c.297.535.916.75 1.488.773.583.012 1.226-.047 1.666-.464.477-.5.548-1.25.477-1.905-.048-.56-.334-1.154-.881-1.38-.572-.215-1.215-.227-1.81-.096z" fill="#FFF"/></svg>
